src/assets/icons/fa/genderless.svg

<?xml version="1.0" encoding="utf-8"?>
<svg width="1792" height="1792" viewBox="0 0 1792 1792" xmlns="http://www.w3.org/2000/svg"><path d="M1280 960q0-185-131.5-316.5t-316.5-131.5-316.5 131.5-131.5 316.5 131.5 316.5 316.5 131.5 316.5-131.5 131.5-316.5zm128 0q0 117-45.5 223.5t-123 184-184 123-223.5 45.5-223.5-45.5-184-123-123-184-45.5-223.5 45.5-223.5 123-184 184-123 223.5-45.5 223.5 45.5 184 123 123 184 45.5 223.5z"/></svg>

<svg width="1792" height="1792" xmlns="http://www.w3.org/2000/svg"><path d="M1280 960q0-185-131.5-316.5T832 512 515.5 643.5 384 960t131.5 316.5T832 1408t316.5-131.5T1280 960zm128 0q0 117-45.5 223.5t-123 184-184 123T832 1536t-223.5-45.5-184-123-123-184T256 960t45.5-223.5 123-184 184-123T832 384t223.5 45.5 184 123 123 184T1408 960z"/></svg>
